X: 1734
T: Apple
R: hornpipe
M: 4/4
K: Dmajor
|:fga2 d2cd|ef g2 B2B2|ed cdec Ac|egfg agfe|
fga2 d2cd|ef g2 B2B2|ed cdec Ac|egfd ecd2:|
|:FGA2 d2d2|efec Acd2|AFGA BdAF|DF GE =C2=C2|
FGA2 d2d2|efec Acd2|cBAB cdef|(3gfe f2d2d2:|

